X: 1
T: Drummond Castle
R: jig
M: 6/8
L: 1/8
K: Amin
E | A>BA a3 | age ~g3|~c3 edc|Bdg dBG|
(ABA) ~a3 | age g3| ege deg|edB A2:|
|: B | ~c3 cec|~d3 ded|~c3 edc|Bdg dBG|
~c3 edc|deg a2 g |ege deg| edB A2 :|]
